X:1
T:Damigella tutta bella
T:Piero Benedetti
T:Source :  Musische di Piero Benedetti---Fiorenza---Heredes di C.Marescotti---1611. Editor : André Vierendeels (19/05/15).
T:Notes : Original clefs : C1, F4 Figures in BC are notated in original print  
T:Damigella tutta bella
C:Piero Benedetti
%%score 1 2
L:1/8
Q:1/4=120
M:4/4
K:C
V:1 treble nm="Soprano" snm="S"
V:2 bass nm="BC" snm="BC"
V:1
 z2 GA B2 B2 | d3 B A2 A2 | z2 ed c2 e2 | B3 A A2 A2 | z2 ^cc d3 d | c3 B B2 B2 | %6
w: Da- mi- gel- la|tut- ta bel- la|ver- sa, ver- sa|quel bel vi- no,|fa che ca- da|la ru- gia- da|
w: Hor nel se- no|rio ve- le- no|che vi spar- se'A-|mor pro- fon- do,|ma git- tar- lo|e las- car- lo|
w: Da- mi- gel- la|tut- ta bel- la|di quel vin tu|non mi sa- zi,|fa che ca- da|la ru- gia- da|
w: A che spen- to|io non sen- to|il fu- * gli|ar- dor mie- i,|men co- cen- ti|me- no'ar- den- ti|
w: No- va fiam- ma|si m'en- fiam- ma|An- de'il cor fo-|co no- vel- lo,|se mia vi- ta|non s'a- i- ta|
 z2 dd e/f/g/f/ e/d/c/B/ | A3 A G2 G2 :| %8
w: di- stil- la- * * * ta _ _ _|di ru- bi- no.|
w: vo som- mer- * * * so'in _ _ _|que- sto fon- do.|
w: di- stil- la- * * * ta _ _ _|di to- pa- zi.|
w: so- n'ohi- me _ _ _ gli'ac- * * *|cen- di'et- ne- i.|
w: ah ch'io veg- * * * go'un _ _ _|Mon- gi- bel- lo.|
V:2
 G,,8 | B,,2 C,2 D,4- | D,2 A,,2 A,,4 |"^4""^#""^#" E,2 E,2 A,,4- |"^#""^#" A,,2 A,G, ^F,4- | %5
 F,4 G,4- | G,2 B,,2 C,4 |"^4""^#" D,2 D,2 G,,4 :| %8

